assets/images/companyCards/card-plaid.svg

<svg xmlns="http://www.w3.org/2000/svg" xmlns:xlink="http://www.w3.org/1999/xlink" fill="none" viewBox="0 0 40 26"><rect width="39" height="25" x=".5" y=".5" fill="#fff" rx="3.5"/><rect width="39" height="25" x=".5" y=".5" stroke="#E6E1DA" stroke-width=".5" rx="3.5"/><rect width="18" height="5" x="18" y="10.5" fill="url(#pattern0_48_19834)"/><path fill="#E7ECE9" fill-rule="evenodd" d="M3 11.926C3 11.8657 3.01856 11.8068 3.05317 11.7574L3.49552 11.1254C3.55056 11.0468 3.64049 11 3.73647 11H5.817C5.97944 11 6.11112 11.1317 6.11112 11.2941V14.7058C6.11112 14.8682 5.97944 14.9999 5.817 14.9999H3.73647C3.64049 14.9999 3.55056 14.9531 3.49552 14.8744L3.05317 14.2425C3.01856 14.1931 3 14.1342 3 14.0739V11.926ZM6.50002 11.2941C6.50002 11.1317 6.6317 11 6.79414 11H7.76146C7.9239 11 8.05558 11.1317 8.05558 11.2941V12.5392C8.05558 12.7016 7.9239 12.8333 7.76146 12.8333H6.79414C6.6317 12.8333 6.50002 12.7016 6.50002 12.5392V11.2941ZM8.73856 11C8.57612 11 8.44444 11.1317 8.44444 11.2941V13.0391C8.44444 13.2016 8.57612 13.3333 8.73856 13.3333H9.70588C9.86832 13.3333 10 13.2016 10 13.0391V11.2941C10 11.1317 9.86832 11 9.70588 11H8.73856ZM6.50002 13.4609C6.50002 13.2984 6.6317 13.1667 6.79414 13.1667H7.76146C7.9239 13.1667 8.05558 13.2984 8.05558 13.4609V14.7059C8.05558 14.8683 7.9239 15 7.76146 15H6.79414C6.6317 15 6.50002 14.8683 6.50002 14.7059V13.4609ZM8.73856 13.6667C8.57612 13.6667 8.44444 13.7984 8.44444 13.9609V14.7059C8.44444 14.8684 8.57612 15 8.73856 15H9.70588C9.86832 15 10 14.8684 10 14.7059V13.9609C10 13.7984 9.86832 13.6667 9.70588 13.6667H8.73856Z" clip-rule="evenodd"/></svg>

<svg xmlns="http://www.w3.org/2000/svg" fill="none" viewBox="0 0 40 26"><rect width="39" height="25" x=".5" y=".5" fill="#fff" rx="3.5"/><rect width="39" height="25" x=".5" y=".5" stroke="#e6e1da" stroke-width=".5" rx="3.5"/><path fill="url(#pattern0_48_19834)" d="M18 10.5h18v5H18z"/><path fill="#e7ece9" fill-rule="evenodd" d="M3 11.926a.3.3 0 0 1 .053-.169l.443-.632a.3.3 0 0 1 .24-.125h2.081c.162 0 .294.132.294.294v3.412a.294.294 0 0 1-.294.294h-2.08a.3.3 0 0 1-.241-.126l-.443-.632A.3.3 0 0 1 3 14.075zm3.5-.632c0-.162.132-.294.294-.294h.967c.163 0 .295.132.295.294v1.245a.294.294 0 0 1-.295.294h-.967a.294.294 0 0 1-.294-.294zM8.739 11a.294.294 0 0 0-.295.294v1.745c0 .163.132.294.295.294h.967A.294.294 0 0 0 10 13.04v-1.745A.294.294 0 0 0 9.706 11zM6.5 13.46c0-.162.132-.293.294-.293h.967c.163 0 .295.131.295.294v1.245A.294.294 0 0 1 7.76 15h-.967a.294.294 0 0 1-.294-.294zm2.239.207a.294.294 0 0 0-.295.294v.745c0 .162.132.294.295.294h.967a.294.294 0 0 0 .294-.294v-.745a.294.294 0 0 0-.294-.294z" clip-rule="evenodd"/></svg>
